!!!!SEGMENT: pl-wnifc--13846--001-090_anonim--piesni-polskie-i-ruskie-ludu-galicyjskiego-90-bede-plakac-wzaciszy.krn
!!!kernsource:
!!!cenid: 18xx:3312
!!!COM: Anonim
!!!COM-rismID: pe30004985
!!!CDT:
!!!CNT:
!!!GTL: Pieśni polskie i ruskie ludu galicyjskiego
!!!OTL: 90. Będę płakać wzaciszy
!!!OMV: 090
!!!PDT: 1833
!!!AGN:
!!!YEC: Copyright 2022 Narodowy Instytut Fryderyka Chopina (https://polishscores.org)
!!!YEM: License CC-BY-4.0 (https://creativecommons.org/licenses/by/4.0)
!!!SMS-siglum: PL-Wnifc
!!!SMS-shelfmark: 13846
!!!SMS-shelfwork: 001-090 G
!!!NIFC-rismSourceID: 1001036701
!!!NIFC-rismChildID: 1001039011
!!!NIFC-islandoraID: nifc:210326
!!!URL-pdf-islandora: https://repozytorium.nifc.pl/islandora/object/nifc%3A210326/datastream/PDF/view
!!!URL-scan:
!!!IIIF:
!!!ONB-nifc:
!!!OMD: Andantino
!!!AIN: 1 piano 1 vox
!!!key: b
**kern	**kern	**kern	**text
*part2	*part2	*part1	*
*staff3	*staff2	*staff1	*
*I"FORTEPIAN.	*I"FORTEPIAN.	*I"GŁOS.	*
*Ipiano	*Ipiano	*Ivox	*
*ICklav	*ICklav	*ICvox	*
*IGacmp	*IGacmp	*IGsolo	*
*clefF4	*clefG2	*clefG2	*
*k[f#c#]	*k[f#c#]	*k[f#c#]	*
*b:	*b:	*b:	*
*M6/8	*M6/8	*M6/8	*
=1-	=1-	=1-	=1-
*^	*	*	*
!LO:S:s=1:note:problem=note-level slur	!	!LO:TX:a:t=E. 66.:rj	!	!
(<8BB/L	4.BB\	4dd\	4dd\	Bę-
8F#/	.	.	.	.
8B/J)	.	8dd\	8dd\	-dę
!LO:S:s=1:note:problem=note-level slur	!	!	!	!
(<8E/L	4.BB\	(>8.cc#^<\L	(>8.cc#\L	pła-
8G/	.	.	.	.
.	.	16b\Jk)	16b\Jk)	.
8c#/J)	.	(>16b^<\LL	(>16b\LL	-kać
.	.	16a#X\JJ)	16a#X\JJ)	.
=2	=2	=2	=2	=2
8E/L	4.BB\	8.a#X/L	8.a#X/L	w_za-
(<8F#/	.	.	.	.
.	.	16f#/Jk	16f#/Jk	.
8c#/J)	.	8a#/	8a#/	-ci-
!LO:S:s=1:note:problem=note-level slur	!	!	!	!
(<8D/L	4.BB\	4b\	4b\	-szy,
8F#/	.	.	.	.
8B/J)	.	8r	8r	.
!!LO:LB:g=original
=3	=3	=3	=3	=3
!LO:S:s=1:note:problem=note-level slur	!	!	!	!
(<8BB/L	4.BB\	4dd\	4dd\	ła-
8F#/	.	.	.	.
8B/J)	.	8dd\	8dd\	-jać
!LO:S:s=1:note:problem=note-level slur	!	!	!	!
(<8E/L	4.BB\	(>8.cc#\L	(>8.cc#\L	mo-
8G/	.	.	.	.
.	.	16b\Jk)	16b\Jk)	.
8c#/J)	.	(<16b/LL	(<16b/LL	-jéj
.	.	16a#X/JJ)	16a#X/JJ)	.
=4	=4	=4	=4	=4
8E/L	4.BB\	8.aa#X\L 8.a#X\	8.a#X/L	nie-
(<8D/	.	.	.	.
.	.	16ff#\K 16f#\	16f#/Jk	.
8c#/J)	.	8aa#\J 8a#\	8a#/	-do-
!LO:S:s=1:note:problem=note-level slur	!	!	!	!
(<8D/L	4.BB\	4bb\ 4b\	4b\	-li
8F#/	.	.	.	.
8B/J)	.	8r	8r	.
*v	*v	*	*	*
!!LO:LB:g=original
=5	=5	=5	=5
4.F#/ 4.FF#/	8.ff#\L 8.dd\	(>8.ff#\L	nikt
.	16dd\K 16b\	16dd\Jk)	.
.	8ff#\J 8dd\	8ff#\	mnie
4.F#/ 4.FF#/	8.ee\L 8.cc#\	(>8.ee\L	z_lu-
.	16cc#\K 16a#X\	16cc#\Jk)	.
.	8ee\J 8cc#\	8ee\	-dzi
=6	=6	=6	=6
4.F#/ 4.FF#/	8.dd\L 8.b\	(>8.dd\L	nie
.	16b\K 16d\	16b\Jk)	.
.	8dd\J 8b\	8dd\	sły-
4.F#/ 4.FF#/	4cc#\ 4a#X\	4cc#\	-szy,
.	8r	8r	.
!!LO:LB:g=original
=7	=7	=7	=7
4AA#X/	4ee\ 4cc#\ 4f#\	4ee\	na-
8AA#/	8ff#\ 8cc#\ 8f#\	8ff#\	pła-
8.BB/L	(>8.dd\L 8.f#\	(>8.dd\L	-czę
16C#/K	16cc#\K)	16cc#\Jk)	.
8D/J	8b\|J	8b\	się
=8	=8	=8	=8
*	*^	*	*
4F#/ 4FF#/	8.a#X/L	4e\	(<8.a#X/L	do-
.	16f#/K	.	16f#/Jk)	.
8F#/ 8FF#/	8a#/J	8e\	8a#/	-wo-
4BB/	4b/	4d\	4b\	-li.
8r	8r	8ryy	8r	.
*	*v	*v	*	*
==	==	==	==
*-	*-	*-	*-
!!!system-decoration: <s1>{(s2,s3)}
!!!RDF**kern: > = above
!!!RDF**kern: < = below
!!!RDF**kern: | = vertical stroke
!!!ENC: Andrzej Kubiczek
!!!END: 2021-11-11
